X:786
T:Ashburnham Waltz
R:Waltz
C:Bruce Osborne  --  Jan.6 1993
M:3/4
L:1/8
K:D
Ad|f3 gfe|d2A2F2|(3GAG D2B,2|G,4B,2|!
A,3 B,CD|E3 A,CE|D3 FAB|A4Ad|!
f3 gfe|d2A2F2|(3GAG D2B,2|G,4B,2|!
A,3 B,CD|E3 A,CE|D3 CDE|D4:|!
|:Ad|f3 gfe|d2A2F2|G3 ABd|A4Ad|!
f3 gfe|d2A2d2|ce3ef|e4Ad|!
f3 gfe|d2A2F2|G3 ABd|A4F2|!
G3 ABd|A2d2Ad|c3 dec|d4:|!


